X: 109
T:Shooters Hornpipe. JC.109
M:C|
L:1/8
Q:160
S:John Clare,Poet,Helpston. (1793-1864)
R:Hornpipe
O:England
A:Northamptonshire
N:
Z:vmp.P. Headford
K:G
"Key Dmaj in MS"D|G2G2GABc|dcBA GBAG|\
A2AA ABcd|ecAG FAFD|!
G2GG GABc|dcBAG2g2|fafd egec|d2d2d2:|!
|:z2|A2AA ABcd|ecAG FAFD|d2dd d2ef|gedc BdBG|!
e2ccc2ec|d2BBB2cd|ecdB cAGF|G2G2G2:|]
